X: 1251
T:Gan Ainm
M:4/4
L:1/8
R:Reel
H:Version of Boys of the Lough
D:Session tape - Mullach, Clare 1985
Z:Bernie Stocks
K:D
DFF2 DFAB | defe dBB2 | AFF2 BFAF | E2EF E2FE | DFF2 DFAB | defe dBB2 |\
AFF2 dFAF | EDFE D4 :: dff2 dfaf | g2fe dBB2 | dBBA Bcde |\
fdgf e2fe | dfaf g2bg | fafe dBB2 | AFF2 dFAF | EDFE D4 :|
